modules/zondicons/icons/thumbs-up.svg

<?xml version="1.0" encoding="UTF-8" standalone="no"?>
<svg width="20px" height="20px" viewBox="0 0 20 20" version="1.1" xmlns="http://www.w3.org/2000/svg" xmlns:xlink="http://www.w3.org/1999/xlink">
    <!-- Generator: Sketch 3.7.2 (28276) - http://www.bohemiancoding.com/sketch -->
    <title>thumbs-up</title>
    <desc>Created with Sketch.</desc>
    <defs></defs>
    <g id="Page-1" stroke="none" stroke-width="1" fill="none" fill-rule="evenodd">
        <g id="thumbs-up" fill="#000000">
            <path d="M11.0010436,0 C9.89589787,0 9.00000024,0.886706352 9.0000002,1.99810135 L9,8 L1.9973917,8 C0.894262725,8 0,8.88772964 0,10 L0,12 L2.29663334,18.1243554 C2.68509206,19.1602453 3.90195042,20 5.00853025,20 L12.9914698,20 C14.1007504,20 15,19.1125667 15,18.000385 L15,10 L12,3 L12,0 L11.0010436,0 L11.0010436,0 Z M17,10 L20,10 L20,20 L17,20 L17,10 L17,10 Z" id="Fill-97"></path>
        </g>
    </g>
</svg>

<svg width="20" height="20" viewBox="0 0 20 20" xmlns="http://www.w3.org/2000/svg"><path d="M11.001 0A1.995 1.995 0 0 0 9 1.998V8H1.997A1.994 1.994 0 0 0 0 10v2l2.297 6.124C2.685 19.16 3.902 20 5.009 20h7.982A2 2 0 0 0 15 18v-8l-3-7V0h-.999zM17 10h3v10h-3V10z" fill="#000" fill-rule="evenodd"/></svg>
